X: 34338
T: Return To Burton Road
R: jig
M: 6/8
K: Dmajor
|:EAB =cAG|Adc d2e|fag efd|A2G EFD|
~d3 afd|Bef ~g3|fed ecA|1 GEA D2G:|2 GEA D3||
|:dcd f/g/af|gec Ace|ded AFA|=cBc EFG|
Add f/g/af|gec Ace|ded AFA|1 GEA D3:|2 GEA D2A||
|:~d3 aba|gfg aba|~d3 aba|gef gfe|
def ecA|G2B AFG|Ace =cde|1 AGE D3:|2 AGE D2G||

